X:57
T:Uncle Bernard's
M:4/4
L:1/4
K:G
D | "G"G A B c | d3/2 e/2 d/2c/2 B | "D7"c3/2 d/2 c/2B/2 A | "G"B3/2 c/2 B A | \
G A B c | d3/2 e/2 d g | "D7"f/2e/2d/2c/2 B A | "G"G3 :|]
[|: d | "C"g g f e | "G"d3/2 e/2 d/2c/2 B | "D7"c3/2 d/2 c/2B/2 A | "G"B3/2 c/2 B d | \
"C"g g f e | d3/2 e/2 d g | "D7"f/2e/2d/2c/2 B A | "G"G3 :|]

